X:1
T:Hallelujah!
T:Salvation Army Melody
T:Hallelujah!
T:Public Domain
T:Public Domain
C:Salvation Army Melody
Z:Public Domain
%%score ( 1 2 ) ( 3 4 )
L:1/8
M:6/8
K:Ab
V:1 treble 
V:2 treble 
V:3 bass 
V:4 bass 
V:1
 [CE] | [CE][CA][CA] [CA][B,G][CA] | [DB][CA][DB] [Ec]3 | [Ee]3- [Ee]2 [Fd] | [Ec] [CA]4 [CE] | %5
w: 1.~I|now have the Spir- it that|set- teth me free,|Hal- * le-|lu- jah! My|
w: 2.~No|long- er I’m doubt- ing His|po- wer to save,|Hal- * le-|lu- jah! The|
w: 3.~So|glad I can trust Him I|can- not but shout,|Hal- * le-|lu- jah! The|
w: 4.~My|Sav- ior is with me each|day in the year,|Hal- * le-|lu- jah! A|
 [CE][CA][CA] [CA][B,G][CA] | [DB][CA][DB] [Ec]3 | [Ee]3- [Ee]2 [Fd] | [Ec] [CA]4 || %9
w: Sav- ior’s own pre- sence a-|bid- eth with me,|Hal- * le-|lu- jah!|
w: plea- sures of earth I no|long- er now crave,|Hal- * le-|lu- jah!|
w: in- bred cor- rupt- ion is|all tak- en out,|Hal- * le-|lu- jah!|
w: con- stant Com- pan- ion, I’ve|no- thing to fear,|Hal- * le-|lu- jah!|
"^Refrain" [CE] | [CE]2 [Ec] [CA]2 E | [DF]2 [Fd] [DB]2 [DF] | [DG]2 [DG] [DG]2 [DF] | %13
w: ||||
w: ||||
w: ||||
w: ||||
 ([DF]3 [CE]2) [CE] | [CE]2 [Ec] [CA]2 E | [DF]2 [Fd] [DB]2 [DF] | [EG]2 [Ed] [Ec]2 [DB] | %17
w: ||||
w: ||||
w: ||||
w: ||||
 [CA]3 z2 |] %18
w: |
w: |
w: |
w: |
V:2
 x | x6 | x6 | x6 | x6 | x6 | x6 | x6 | x5 || x | x5 E | x6 | x6 | x6 | x5 E | x6 | x6 | x5 |] %18
V:3
 [A,,A,] | [A,,A,][A,,E,][A,,E,] [A,,E,][A,,E,][A,,E,] | [E,G,][E,A,][E,G,] A,3 | %3
w: ~|~ ~ ~ ~ ~ ~|~ ~ ~ ~|
 [A,C]2 [A,C] [E,B,]2 [E,B,] | A, [A,,E,]4 [A,,A,] | [A,,A,][A,,E,][A,,E,] [A,,E,][A,,E,][A,,E,] | %6
w: ~ ~ ~ ~|~ ~ ~|~ ~ ~ ~ ~ ~|
 [E,G,][E,A,][E,G,] A,3 | [A,C]2 [A,C] [E,B,]2 [E,B,] | A, [A,,E,]4 || [A,,A,] | %10
w: ~ ~ ~ ~|~ ~ ~ Oh,|hal- le-|jah!|
 [A,,A,]2 [A,,A,] [A,,E,]2 [C,A,] | [D,A,]2 [D,A,] [D,F,]2 [D,A,] | E,2 [E,G,] [E,B,]2 [E,G,] | %13
w: hal- le- lu- jah!|I am glad to|tell, Oh, hal- le-|
 [A,,A,]3- [A,,A,]2 [A,,A,] | [A,,A,]2 [A,,A,] [A,,E,]2 [C,A,] | [D,A,]2 [D,A,] [D,B,]2 [=D,B,] | %16
w: jah! * hal-|le- lu- jah! With|my soul ’tis well.|
 [E,B,]2 [E,B,] [E,A,]2 [E,G,] | [A,,E,]3 z2 |] %18
w: ||
V:4
 x | x6 | x3 A,3 | x6 | A, x5 | x6 | x3 A,3 | x6 | A, x4 || x | x6 | x6 | E,2 x4 | x6 | x6 | x6 | %16
w: ||~||~||~||lu-||||lu-||||
 x6 | x5 |] %18
w: ||

